packages/react-icons/icons/list-with-arrow.svg

<svg width="24" height="25" viewBox="0 0 24 25" xmlns="http://www.w3.org/2000/svg"><path fill-rule="evenodd" clip-rule="evenodd" d="M2 5.5C2 4.94772 2.44772 4.5 3 4.5H21C21.5523 4.5 22 4.94772 22 5.5V19.5C22 20.0523 21.5523 20.5 21 20.5H3C2.44772 20.5 2 20.0523 2 19.5V5.5ZM3.8916 6.39258H20.1084V18.6069H3.8916V6.39258ZM5.23145 10.0572C5.23145 9.56017 5.63439 9.15723 6.13145 9.15723H10.5184C11.0155 9.15723 11.4184 9.56017 11.4184 10.0572C11.4184 10.5543 11.0155 10.9572 10.5184 10.9572H6.13145C5.63439 10.9572 5.23145 10.5543 5.23145 10.0572ZM5.23145 12.5001C5.23145 12.003 5.63439 11.6001 6.13145 11.6001H10.5184C11.0155 11.6001 11.4184 12.003 11.4184 12.5001C11.4184 12.9972 11.0155 13.4001 10.5184 13.4001H6.13145C5.63439 13.4001 5.23145 12.9972 5.23145 12.5001ZM5.23145 14.943C5.23145 14.4459 5.63439 14.043 6.13145 14.043H10.5184C11.0155 14.043 11.4184 14.4459 11.4184 14.943C11.4184 15.44 11.0155 15.843 10.5184 15.843H6.13145C5.63439 15.843 5.23145 15.44 5.23145 14.943ZM15.3686 10.1776C15.7201 10.529 15.7202 11.0989 15.3688 11.4504L15.2175 11.6018L17.8686 11.6017C18.3656 11.6017 18.7686 12.0046 18.7686 12.5017C18.7686 12.9987 18.3657 13.4017 17.8687 13.4017L15.2204 13.4018L15.3688 13.5503C15.7202 13.9018 15.7201 14.4717 15.3686 14.8231C15.017 15.1745 14.4472 15.1743 14.0958 14.8228L12.4311 13.1574C12.424 13.1508 12.4171 13.1441 12.4102 13.1372C12.2343 12.9614 12.1464 12.7308 12.1465 12.5003C12.1464 12.2698 12.2343 12.0393 12.4102 11.8635C12.4171 11.8566 12.424 11.8499 12.4311 11.8433L14.0958 10.1779C14.4472 9.82635 15.017 9.82623 15.3686 10.1776Z"/></svg>

<svg xmlns="http://www.w3.org/2000/svg" width="24" height="25"><path fill-rule="evenodd" d="M2 5.5a1 1 0 0 1 1-1h18a1 1 0 0 1 1 1v14a1 1 0 0 1-1 1H3a1 1 0 0 1-1-1v-14Zm1.892.893h16.216v12.214H3.892V6.393Zm1.34 3.664a.9.9 0 0 1 .9-.9h4.386a.9.9 0 1 1 0 1.8H6.131a.9.9 0 0 1-.9-.9Zm0 2.443a.9.9 0 0 1 .9-.9h4.386a.9.9 0 1 1 0 1.8H6.131a.9.9 0 0 1-.9-.9Zm0 2.443a.9.9 0 0 1 .9-.9h4.386a.9.9 0 1 1 0 1.8H6.131a.9.9 0 0 1-.9-.9Zm10.137-4.765a.9.9 0 0 1 0 1.272l-.152.152h2.652a.9.9 0 0 1 0 1.8H15.22l.149.148a.9.9 0 0 1-1.273 1.273l-1.665-1.666a.897.897 0 0 1 0-1.314l1.665-1.665a.9.9 0 0 1 1.273 0Z" clip-rule="evenodd"/></svg>
